!!!COM: Palestrina, Giovanni Perluigi da
!!!OPR: Missa Ascendo ad Patrem
!!!OTL: Kyrie
**kern	**kern	**kern	**kern	**kern
*Ibass	*Itenor	*Itenor	*Icalto	*Icant
!Bassus	!Tenor 2	!Tenor 1	!Altus	!Cantus
*clefF4	*clefGv2	*clefGv2	*clefG2	*clefG2
*k[]	*k[]	*k[]	*k[]	*k[]
*C:ion	*C:ion	*C:ion	*C:ion	*C:ion
*M4/2	*M4/2	*M4/2	*M4/2	*M4/2
=1	=1	=1	=1	=1
0r	0r	0r	1r	1.g
.	.	.	[1c	.
.	.	.	.	2g
=2	=2	=2	=2	=2
0r	0r	0r	2c]	1gg
.	.	.	2c	.
.	.	.	1cc	[1ee
=3	=3	=3	=3	=3
0r	0r	0r	2a	2ee]
.	.	.	2b	2dd
.	.	.	2cc	2ee
.	.	.	2a	2ff
=4	=4	=4	=4	=4
0r	0r	0r	2b	2.gg
.	.	.	2.cc	.
.	.	.	.	4ff
.	.	.	.	4ee
.	.	.	4b	4dd
.	.	.	4a	4cc
.	.	.	4g	4b
=5	=5	=5	=5	=5
0r	0r	1r	4f	4a
.	.	.	4e	4b
.	.	.	4e	1cc
.	.	.	8d	.
.	.	.	8c	.
.	.	[1G	[1d	.
.	.	.	.	4b
.	.	.	.	4a
=6	=6	=6	=6	=6
1r	1.G	2G]	1d]	1b
.	.	2G	.	.
[1C	.	1g	1e	[1cc
.	2G	.	.	.
=7	=7	=7	=7	=7
2C]	1g	2.e	1c	0cc]
2C	.	.	.	.
.	.	4d	.	.
1c	[1e	4e	2r	.
.	.	4f	.	.
.	.	2g	[2cc	.
=8	=8	=8	=8	=8
2A	2e]	2a	2cc]	0r
2B	2d	1g	4b	.
.	.	.	4a	.
2c	2e	.	2g	.
2A	2f	2c	2cc	.
=9	=9	=9	=9	=9
2B	2.g	2d	2b	1r
2.c	.	2e	2g	.
.	4f	.	.	.
.	4e	2.A	[1a	[1cc
4B	4d	.	.	.
4A	4c	.	.	.
4G	4B	4B	.	.
=10	=10	=10	=10	=10
4F	4A	1c	2a]	2cc]
4E	4B	.	.	.
4E	1c	.	2g	2cc
8D	.	.	.	.
8C	.	.	.	.
1D	.	2r	2.f	1ff
.	2B	2d	.	.
.	.	.	8e	.
.	.	.	8d	.
=11	=11	=11	=11	=11
1C	1c	2e	2.g	1ee
.	.	2c	.	.
.	.	.	4a	.
1r	1r	2g	2b	2dd
.	.	2a	[2cc	2cc
=12	=12	=12	=12	=12
1G	2r	2.g	2cc]	1dd
.	2g	.	2b	.
.	.	4f	.	.
[1c	4g	4e	1cc	1ee
.	4f	4d	.	.
.	4e	4c	.	.
.	4d	4d	.	.
=13	=13	=13	=13	=13
2c]	2c	4e	2r	0r
.	.	4f	.	.
2B	2d	1g	2g	.
2A	2e	.	[1cc	.
2A	2c	2f#	.	.
=14	=14	=14	=14	=14
1G	1d	2g	2cc]	1dd
.	.	2g	4b	.
.	.	.	4a	.
1r	2r	4g	1b	[1gg
.	.	4f	.	.
.	2g	4e	.	.
.	.	4d	.	.
=15	=15	=15	=15	=15
0r	2e	2c	2cc	2gg]
.	2.a	2d	4a	2ff
.	.	.	4b	.
.	.	2e	4cc	2ee
.	4g	.	4b	.
.	[2g	2c	2cc	2ee
=16	=16	=16	=16	=16
1r	2g]	1d	0a	1dd
.	4f#	.	.	.
.	4e	.	.	.
1D	1f#	2r	.	2.dd
.	.	2d	.	.
.	.	.	.	4cc
=17	=17	=17	=17	=17
1.G	2g	4d	1d	4b
.	.	4c	.	4a
.	4G	4B	.	1b
.	4A	4A	.	.
.	4B	2G	1d	.
.	4c	.	.	.
2F	2d	2A	.	[2a
=18	=18	=18	=18	=18
2E	1G	2B	2e	4a]
.	.	.	.	4g
2E	.	2G	2c	1g
1D	2r	1A	2.d	.
.	2d	.	.	2f#
.	.	.	4c	.
=19	=19	=19	=19	=19
2r	4d	2G	4B	1g
.	4c	.	4A	.
2G	4B	1d	2G	.
.	4A	.	.	.
4G	1B	.	2g	2r
4F	.	.	.	.
4E	.	2e	4g	2gg
4D	.	.	4f	.
=20	=20	=20	=20	=20
1C	2.c	1g	4e	4gg
.	.	.	4d	4ff
.	.	.	2c	4ee
.	8B	.	.	4dd
.	8A	.	.	.
2C	[1G	2r	2e	2cc
2BB	.	2g	2d	2dd
=21	=21	=21	=21	=21
0C	1G]	4g	4c	1ee
.	.	4f	4d	.
.	.	4e	4e	.
.	.	4d	4f	.
.	1c	1e	1g	1cc
=22	=22	=22	=22	=22
0G	0B	0d	0g	0dd
=23	=23	=23	=23	=23
1r	1G	1r	0r	0r
1C	[1c	1G	.	.
=24	=24	=24	=24	=24
1.F	2c]	1.A	0r	0r
.	2c	.	.	.
.	2d	.	.	.
2G	2e	2B	.	.
=25	=25	=25	=25	=25
2A	2f	2c	0r	0r
2B	2.g	2d	.	.
2.c	.	2e	.	.
.	4f	.	.	.
.	4e	[2g	.	.
8B	4d	.	.	.
8A	.	.	.	.
=26	=26	=26	=26	=26
2G	4e	4g]	0r	0r
.	4d	4f	.	.
2A	4c	1e	.	.
.	4B	.	.	.
1F	1A	.	.	.
.	.	2d	.	.
=27	=27	=27	=27	=27
1E	1B	0e	1r	1g
1C	2r	.	1c	[1cc
.	2g	.	.	.
=28	=28	=28	=28	=28
0r	2.a	2r	1.f	2cc]
.	.	1a	.	2cc
.	4g	.	.	.
.	2f	.	.	2dd
.	2e	2g	2g	2ee
=29	=29	=29	=29	=29
0r	1d	1f	2a	1ff
.	.	.	2b	.
.	[1c	4g	2.cc	2ee
.	.	4f	.	.
.	.	4e	.	[2gg
.	.	4d	8b	.
.	.	.	8a	.
=30	=30	=30	=30	=30
1r	1c]	2e	2g	4gg]
.	.	.	.	4ff
.	.	2A	2a	1ee
1D	1r	1d	1f	.
.	.	.	.	2dd
=31	=31	=31	=31	=31
2.A	2r	2.c	1e	0ee
.	2c	.	.	.
4B	.	4d	.	.
[1c	2.g	1e	2r	.
.	.	.	2c	.
.	4f	.	.	.
=32	=32	=32	=32	=32
2c]	2e	2r	1.g	0r
2B	2d	2G	.	.
2c	2e	2c	.	.
2B	2d	2d	2g	.
=33	=33	=33	=33	=33
2A	4c	2e	2a	0r
.	4A	.	.	.
2G	2d	1g	2b	.
1A	2.c	.	1cc	.
.	.	2f#	.	.
.	4d	.	.	.
=34	=34	=34	=34	=34
1E	1e	1g	2b	2r
.	.	.	2.cc	2g
1F	1A	1r	.	2cc
.	.	.	4b	.
.	.	.	[2a	2dd
=35	=35	=35	=35	=35
1E	1B	0r	2a]	1ee
.	.	.	2g	.
4D	2d	.	[1a	[1ff
4E	.	.	.	.
4F	2A	.	.	.
4G	.	.	.	.
=36	=36	=36	=36	=36
4A	1c	1r	2a]	2ff]
4B	.	.	.	.
1c	.	.	4g	2ee
.	.	.	4f	.
.	1d	1G	1g	1dd
2B	.	.	.	.
=37	=37	=37	=37	=37
1A	2.e	2c	2r	1cc
.	.	2c	2c	.
.	8d	.	.	.
.	8c	.	.	.
1G	1B	2d	2g	2r
.	.	2e	2g	2g
=38	=38	=38	=38	=38
1.F	1A	2.f	1a	2cc
.	.	.	.	2cc
.	.	4e	.	.
.	1r	2d	2f	2dd
2E	.	[2c	2g	2ee
=39	=39	=39	=39	=39
1D	1r	2c]	1a	1ff
.	.	4B	.	.
.	.	4A	.	.
1G	2r	4B	2.g	1dd
.	.	4G	.	.
.	2G	[2g	.	.
.	.	.	4f	.
=40	=40	=40	=40	=40
2r	2c	4g]	4e	2ee
.	.	4f	4c	.
2C	2c	2e	2cc	2.gg
2G	2d	2d	1b	.
.	.	.	.	4ff
2G	2e	2G	.	[2ee
=41	=41	=41	=41	=41
2A	1f	0r	2a	2ee]
2B	.	.	2d	2dd
[1c	2.e	.	2g	1ee
.	.	.	2g	.
.	4d	.	.	.
=42	=42	=42	=42	=42
2c]	4e	2r	2a	0r
.	4f	.	.	.
2B	1g	2G	2b	.
1A	.	2c	[1cc	.
.	2f#	2c	.	.
=43	=43	=43	=43	=43
1G	2g	2d	2cc]	2r
.	2G	2e	2b	2g
1F	1A	1f	1a	2cc
.	.	.	.	2dd
=44	=44	=44	=44	=44
0C	2.c	2.e	[0g	0ee
.	4d	4d	.	.
.	2e	1c	.	.
.	[2c	.	.	.
=45	=45	=45	=45	=45
0G	2c]	0d	0g]	0dd
.	4B	.	.	.
.	4A	.	.	.
.	1B	.	.	.
=46	=46	=46	=46	=46
0D	0A	0d	0f#	0dd
=47	=47	=47	=47	=47
0r	0r	0r	0d	1r
.	.	.	.	1dd
=48	=48	=48	=48	=48
0r	0r	0r	1.g	1.b
.	.	.	2a	2cc
=49	=49	=49	=49	=49
0r	0r	1g	2b	2dd
.	.	.	2b	2dd
.	.	[1e	2cc	2ee
.	.	.	4b	4dd
.	.	.	4a	4cc
=50	=50	=50	=50	=50
0r	0r	2e]	2g	2b
.	.	2f	2a	2a
.	.	2g	2e	2.b
.	.	2g	[2g	.
.	.	.	.	4cc
=51	=51	=51	=51	=51
0D	1r	1a	2g]	1dd
.	.	.	4f#	.
.	.	.	4e	.
.	1d	2r	1f#	1a
.	.	2d	.	.
=52	=52	=52	=52	=52
1.G	1.B	2.d	1g	1b
.	.	4c	.	.
.	.	2B	2d	1r
2A	2c	2A	2f#	.
=53	=53	=53	=53	=53
2B	2d	1G	0g	0r
2B	2d	.	.	.
[1c	[1e	1r	.	.
=54	=54	=54	=54	=54
2c]	2e]	2r	0r	0g
4B	4d	2G	.	.
4A	4c	.	.	.
2B	2d	2G	.	.
[2c	2e	4g	.	.
.	.	4f	.	.
=55	=55	=55	=55	=55
4c]	2A	4e	2r	1.cc
4B	.	4d	.	.
4A	2e	4c	1a	.
4G	.	4B	.	.
4F	1f	2A	.	.
4E	.	.	.	.
2D	.	[2d	2a	2dd
=56	=56	=56	=56	=56
1A	1e	2d]	2a	2ee
.	.	2c#	2a	2ee
2D	1a	1d	2.f	1ff
[2d	.	.	.	.
.	.	.	4g	.
=57	=57	=57	=57	=57
2d]	2r	1A	1a	1ee
2c#	2e	.	.	.
2.d	2.f	1r	2r	2r
.	.	.	2d	2dd
8c	4g	.	.	.
8B	.	.	.	.
=58	=58	=58	=58	=58
2A	1a	0r	2e	2cc#
2d	.	.	2f#	2dd
[1G	2g	.	2.g	4b
.	.	.	.	4a
.	2d	.	.	4g
.	.	.	4f	4a
=59	=59	=59	=59	=59
1G]	2G	1r	2e	4b
.	.	.	.	4cc
.	2B	.	2d	2.dd
1r	1c	2r	1e	.
.	.	.	.	4cc
.	.	2g	.	[2cc
=60	=60	=60	=60	=60
0r	2r	2f#	1d	2cc]
.	2G	2g	.	2b
.	2.A	4e	1c	[1cc
.	.	4d	.	.
.	.	4c	.	.
.	4B	4d	.	.
=61	=61	=61	=61	=61
2r	4c	4e	2r	1cc]
.	4d	4f	.	.
2c	4e	2.g	2c	.
.	4f	.	.	.
2B	1g	.	2d	1r
.	.	4f	.	.
2c	.	4e	2e	.
.	.	4d	.	.
=62	=62	=62	=62	=62
4A	2r	4c	4f	0r
4G	.	4B	4g	.
4F	2f	1A	4a	.
4G	.	.	4b	.
4A	2e	.	2cc	.
4B	.	.	.	.
[2c	2f	2F	2a	.
=63	=63	=63	=63	=63
2c]	1d	1G	2g	2r
2B	.	.	2g	2g
2A	2c	1r	2f#	2a
2G	2d	.	2g	2b
=64	=64	=64	=64	=64
1A	4c	1r	4e	1.cc
.	4d	.	4d	.
.	4e	.	4c	.
.	4f	.	4d	.
1G	1g	2r	4e	.
.	.	.	4f	.
.	.	2d	[2g	2b
=65	=65	=65	=65	=65
2r	0r	2c	2g]	1a
2D	.	2d	2f	.
2.E	.	4B	1e	1g
.	.	4A	.	.
.	.	4G	.	.
4F	.	4A	.	.
=66	=66	=66	=66	=66
2G	2r	4B	2d	0r
.	.	4c	.	.
2D	2f	2.d	1a	.
2A	2e	.	.	.
.	.	4c	.	.
2F	2f	[2c	2a	.
=67	=67	=67	=67	=67
0G	1d	2c]	0g	1r
.	.	4B	.	.
.	.	4A	.	.
.	2r	1B	.	1dd
.	2d	.	.	.
=68	=68	=68	=68	=68
0r	2e	2A	2a	2cc#
.	2f	2d	2a	2dd
.	2.g	1G	4dd	4b
.	.	.	4cc	4a
.	.	.	4b	4g
.	4f	.	4a	4a
=69	=69	=69	=69	=69
1G	2e	2r	1g	4b
.	.	.	.	4cc
.	2d	2G	.	2.dd
2F#	2r	2A	2r	.
.	.	.	.	4cc
2G	2d	2B	[2g	4b
.	.	.	.	4a
=70	=70	=70	=70	=70
4E	2.e	1.c	4g]	1g
4D	.	.	4f	.
4C	.	.	1e	.
4D	4f	.	.	.
4E	[1g	.	.	2.gg
4F	.	.	.	.
2G	.	2B	2d	.
.	.	.	.	4ff
=71	=71	=71	=71	=71
1C	2g]	2.c	2e	4ee
.	.	.	.	4dd
.	2G	.	2.g	1ee
.	.	4B	.	.
1D	2.d	1A	.	.
.	.	.	8f#	.
.	.	.	8e	.
.	.	.	2f#	[2dd
.	4c	.	.	.
=72	=72	=72	=72	=72
2.E	2B	[0G	0g	2dd]
.	2e	.	.	1cc
4F	.	.	.	.
1G	1d	.	.	.
.	.	.	.	2b
=73	=73	=73	=73	=73
0C	0c	0G]	0e	0cc
==	==	==	==	==
*-	*-	*-	*-	*-
!!!CDT: 1525/^1526/-1594/2/2
!!!OCY: Italia
!!!AGN: Mass (Parody)
!!!AST: renaissance, vocal
!!!ASW: Motet 1572 (Palestrina)
!!!PWK: Masses, Book 12
!!!RNB: Cadence finals: G,D
!!!YOR: Le Opere Complete, v. 29, p. 54
!!!YOO: Rome, Italy: Fratelli Scalera
!!!END: 1992//
!!!EED: John Miller
!!!YEC: Copyright 2000, John Miller
!!!YEN: United States of America
!!!YEM: Rights to all derivative electronic formats reserved.
!!!YEM: Refer to licensing agreement for further details.
!!!YEM: This file must be accompanied by the licensing agreement.
!!!YEM: A copy of the licensing agreement may be found at http://www.music-cog.ohio-state.edu/HumdrumDatabases/Palestrina/license.txt
!!!EMD: converted to Humdrum by Bret Aarden
